src/icons/donors-tolocar.svg

<svg width="300" height="87" viewBox="0 0 300 87" fill="none" xmlns="http://www.w3.org/2000/svg">
<g clip-path="url(#clip0_1766_4470)">
<path d="M126.007 10.5466L126.425 10.5371L126.718 10.8871L126.637 58.5914L126.624 58.716L131.308 58.6075L131.35 76.7648L131.171 76.8831L124.301 76.7858L118.311 76.8796L118.16 10.6287L126.007 10.5466Z" fill="currentColor"/>
<path d="M93.6269 12.998L93.9452 13.2504L94.0404 31.3608C93.2107 31.4854 92.32 31.4252 91.4805 31.4259L91.418 79.3213C91.2186 79.3416 91.2921 79.3493 91.1292 79.3213C89.2334 78.9986 86.8618 79.2212 84.9112 79.2324C84.2957 79.2366 83.5697 79.399 82.9826 79.2212L82.8316 78.7368L82.8094 31.4539L80.5323 31.4378L80.4453 13.0553L93.6269 12.998Z" fill="currentColor"/>
<path d="M159.493 10.6802L167.188 10.6303C168.763 10.6328 170.906 10.3864 172.385 10.9247C173.076 11.1764 173.552 11.4852 174.081 12.0097C174.711 12.6355 175.057 13.4396 175.205 14.3083C175.644 16.8919 175.348 19.9558 175.343 22.585L175.334 38.1292C172.65 37.7792 169.519 38.0319 166.801 38.1705L166.801 29.0306L164.186 29.0033L164.16 58.7015C165.076 58.5958 165.906 58.6413 166.817 58.7288L166.746 49.0226L175.129 49.024L175.328 49.6379L175.355 62.8959L175.348 69.1637C175.344 71.0761 175.521 73.0151 174.705 74.7938C174.35 75.5687 173.785 76.0839 172.982 76.3758C170.771 77.1794 167.468 76.7958 165.084 76.7965C163.337 76.7965 161.457 76.9316 159.723 76.7321C159.002 76.6488 158.139 76.4794 157.488 76.1497C156.842 75.8221 156.344 75.3153 156.128 74.6188C155.783 73.5016 155.837 72.2199 155.825 71.06L155.809 65.698L155.809 51.1793L155.813 27.5963L155.845 14.9443C155.873 14.1787 155.872 13.4262 156.25 12.7351C156.875 11.5905 158.314 11.0003 159.493 10.6802Z" fill="currentColor"/>
<path d="M182.504 16.1274L189.419 16.1099C190.893 16.1141 193.16 15.8838 194.493 16.4886C195.592 16.9877 196.338 17.7192 196.776 18.8385C197.287 20.1398 197.104 21.8947 197.105 23.2779L197.107 30.5544V66.218L197.112 76.004C197.102 78.0823 196.953 80.2208 197.199 82.2865C194.389 82.0093 191.342 82.2711 188.51 82.2865L188.534 79.2835C188.279 79.6993 188.015 80.1634 187.658 80.4994C186.166 81.9043 183.729 82.29 181.758 82.1934C180.843 81.9435 179.704 81.4962 179.065 80.7591C178.216 79.7812 178.015 77.9976 177.891 76.7369C177.731 75.1066 177.816 73.3944 177.819 71.7543L177.824 63.4656L177.822 51.9366C177.824 49.9332 177.738 47.8829 177.848 45.8837C177.953 44.0056 178.117 42.3249 179.605 41.0236C181.883 39.0307 185.816 39.4017 188.693 39.5809L188.663 34.354L186.095 34.396L186.081 37.4417L177.881 37.4816C177.636 34.3827 177.809 31.1564 177.81 28.0407C177.811 25.4038 177.614 22.5688 177.906 19.9613C177.992 19.1871 178.155 18.2456 178.669 17.6254C179.653 16.4361 181.075 16.2513 182.504 16.1274ZM186.035 58.6384L186.052 63.8394L188.735 63.9367C188.624 62.9315 188.558 61.9459 188.594 60.9344C188.618 60.2414 188.81 59.2684 188.628 58.6279C187.768 58.6552 186.893 58.7168 186.035 58.6384Z" fill="currentColor"/>
<path d="M199.838 10.4746C203.635 10.9177 207.777 10.6259 211.617 10.6339C213.15 10.6371 214.832 10.4993 216.325 10.8543C217.393 11.1083 218.445 11.8418 219.017 12.7894C219.328 13.305 219.447 13.807 219.494 14.4055C219.648 16.3143 219.548 18.2953 219.55 20.2105L219.547 30.4123L219.54 37.6517C219.538 38.9292 219.689 40.3705 219.392 41.6144C219.143 42.6623 217.654 43.3105 216.791 43.8523C217.349 44.0938 218.217 44.3815 218.654 44.7994C219.116 45.2418 219.306 45.9474 219.383 46.5606C219.716 49.1996 219.48 52.1291 219.481 54.7961L219.506 76.7439L219.392 76.8615L210.541 76.8951L210.514 64.2629L210.511 53.3044C210.004 53.3121 208.348 53.1189 207.977 53.3786L208.095 76.8986C205.523 76.606 202.261 76.6137 199.703 76.9763C199.602 70.2976 199.388 11.4783 199.838 10.4746ZM208.082 29.0102L208.086 32.52C208.088 33.0275 208.006 33.6904 208.139 34.1783C209.118 34.1195 210.021 34.0502 210.986 34.2882L210.899 31.0024C210.911 30.4221 211.044 29.5856 210.865 29.0368L208.082 29.0102Z" fill="currentColor"/>
<path d="M99.8335 16.0974C101.85 15.942 103.923 16.0309 105.948 16.0274C108.096 16.0239 112.074 15.5304 113.955 16.6497C114.93 17.2293 115.346 18.2457 115.629 19.2852C115.941 20.4304 115.851 21.7499 115.852 22.9315L115.853 28.731L115.85 47.5456L115.846 67.2996C115.85 70.7709 116.048 74.3584 115.822 77.8129C115.754 78.8454 115.482 79.6797 114.964 80.5715C114.402 81.5383 113.583 81.6727 112.542 81.9436C109.874 82.1725 107.178 82.1018 104.502 82.0885C102.682 82.0787 100.518 82.2411 98.7721 81.6951C98.0203 81.4606 97.3617 81.0574 97.0073 80.3294C96.6393 79.572 96.5165 78.6619 96.4798 77.8303L96.453 68.4644L96.4562 50.5381L96.4437 29.6333L96.4434 22.8881C96.4441 21.5371 96.2787 19.8816 96.7257 18.6055L96.7637 18.4998C96.8326 18.3031 96.8965 18.1169 96.9986 17.9335C97.6096 16.8373 98.6737 16.3956 99.8335 16.0974ZM104.882 34.2316L104.871 63.8458C105.636 63.8591 106.41 63.8451 107.162 63.9963L107.12 42.003L107.118 36.8181C107.118 36.0383 107.235 35.0415 107.059 34.2862L104.882 34.2316Z" fill="currentColor"/>
<path d="M137.456 3.85936C139.71 3.63746 142.094 3.75625 144.36 3.76185C146.348 3.76675 148.835 3.5389 150.751 4.1297C151.609 4.39395 152.486 5.11656 152.877 5.92968C153.36 6.9311 153.365 8.22512 153.405 9.31691L153.411 18.9479L153.402 37.9872L153.418 55.3087L153.337 65.6617C153.308 66.2091 153.213 66.7516 153.021 67.2668C152.548 68.5324 151.544 69.0889 150.38 69.644C148.275 70.0199 145.929 69.847 143.788 69.8463C141.481 69.8456 137.671 70.3573 135.697 69.1701C134.868 68.671 134.359 68.1516 134.152 67.1835C133.627 64.7258 133.93 61.7319 133.94 59.2042L133.946 47.3672L133.925 22.0426L134.031 7.41095C134.068 6.72467 134.131 5.95586 134.523 5.36688C135.173 4.38716 136.376 4.07006 137.456 3.85936ZM142.162 22.1056L142.257 51.7555C143.123 51.7128 143.965 51.6666 144.829 51.7625L144.817 22.1889L142.162 22.1056Z" fill="currentColor"/>
</g>
<defs>
<clipPath id="clip0_1766_4470">
<rect width="300" height="87" fill="white"/>
</clipPath>
</defs>
</svg>

<svg id="Layer_1" data-name="Layer 1" xmlns="http://www.w3.org/2000/svg" xmlns:xlink="http://www.w3.org/1999/xlink" viewBox="0 0 139.135 78.564"><defs><clipPath id="clip-path" transform="translate(-80.445 -3.723)"><rect width="300" height="87" fill="none"/></clipPath></defs><g clip-path="url(#clip-path)"><path d="M126.007,10.547l.418-.01.293.35-.081,47.7-.013.125,4.684-.109.042,18.158-.179.118-6.87-.1-5.99.094-.151-66.251Z" transform="translate(-80.445 -3.723)" fill="currentColor"/><path d="M93.627,13l.318.252.1,18.111a17.76,17.76,0,0,1-2.56.065l-.062,47.9a.573.573,0,0,1-.289,0,38.684,38.684,0,0,0-6.218-.089,6.8,6.8,0,0,1-1.928-.011l-.151-.484-.023-47.283-2.277-.016-.087-18.383Z" transform="translate(-80.445 -3.723)" fill="currentColor"/><path d="M159.493,10.68l7.695-.05c1.575,0,3.718-.244,5.2.295a4.307,4.307,0,0,1,1.7,1.085,4.143,4.143,0,0,1,1.124,2.3c.439,2.584.143,5.648.138,8.277l-.009,15.544a49.743,49.743,0,0,0-8.533.042v-9.14L164.186,29l-.026,29.7a12.228,12.228,0,0,1,2.657.028l-.071-9.706h8.383l.2.614.027,13.258-.007,6.268c0,1.912.173,3.851-.643,5.63a2.892,2.892,0,0,1-1.723,1.582c-2.211.8-5.514.42-7.9.421a47.911,47.911,0,0,1-5.361-.065,7,7,0,0,1-2.235-.582,2.576,2.576,0,0,1-1.36-1.531,12.741,12.741,0,0,1-.3-3.559l-.016-5.362V51.179l0-23.583.032-12.652a4.768,4.768,0,0,1,.405-2.209A5.132,5.132,0,0,1,159.493,10.68Z" transform="translate(-80.445 -3.723)" fill="currentColor"/><path d="M182.5,16.127l6.915-.017c1.474,0,3.741-.226,5.074.379a4.117,4.117,0,0,1,2.283,2.349,12.936,12.936,0,0,1,.329,4.44l0,7.276V66.218l0,9.786a51.411,51.411,0,0,0,.087,6.282,86.24,86.24,0,0,0-8.689,0l.024-3a5.824,5.824,0,0,1-.876,1.215c-1.492,1.405-3.929,1.791-5.9,1.694a5.65,5.65,0,0,1-2.693-1.434c-.849-.978-1.05-2.761-1.174-4.022-.16-1.63-.075-3.343-.072-4.983l.005-8.288,0-11.529c0-2-.084-4.054.026-6.053.1-1.878.269-3.559,1.757-4.86,2.278-1.993,6.211-1.622,9.088-1.443l-.03-5.227L186.1,34.4l-.014,3.046-8.2.04c-.245-3.1-.072-6.326-.071-9.441a74.766,74.766,0,0,1,.1-8.08,4.516,4.516,0,0,1,.763-2.336C179.653,16.436,181.075,16.251,182.5,16.127Zm3.531,42.511.017,5.2,2.683.1a20.5,20.5,0,0,1-.141-3,8.676,8.676,0,0,0,.034-2.306A21.165,21.165,0,0,1,186.035,58.638Z" transform="translate(-80.445 -3.723)" fill="currentColor"/><path d="M199.838,10.475c3.8.443,7.939.151,11.779.159a21.013,21.013,0,0,1,4.708.22,4.459,4.459,0,0,1,2.692,1.935,3.476,3.476,0,0,1,.477,1.617c.154,1.908.054,3.889.056,5.8l0,10.2-.007,7.24a17.756,17.756,0,0,1-.148,3.962c-.249,1.048-1.738,1.7-2.6,2.238a6.944,6.944,0,0,1,1.863.947,2.957,2.957,0,0,1,.729,1.762,68.1,68.1,0,0,1,.1,8.235l.025,21.948-.114.118-8.851.033-.027-12.632,0-10.959a8.407,8.407,0,0,0-2.534.075L208.1,76.9a35.96,35.96,0,0,0-8.392.077C199.6,70.3,199.388,11.478,199.838,10.475Zm8.244,18.535,0,3.51a7,7,0,0,0,.053,1.658,9.157,9.157,0,0,1,2.847.11L210.9,31a6.758,6.758,0,0,0-.034-1.965Z" transform="translate(-80.445 -3.723)" fill="currentColor"/><path d="M99.834,16.1c2.016-.155,4.089-.066,6.114-.07,2.148,0,6.126-.5,8.007.623a4.066,4.066,0,0,1,1.674,2.635,14.286,14.286,0,0,1,.223,3.646v5.8l0,18.815,0,19.754c0,3.471.2,7.058-.024,10.513a5.993,5.993,0,0,1-.858,2.759c-.562.966-1.381,1.1-2.422,1.372-2.668.229-5.364.158-8.04.145a20.471,20.471,0,0,1-5.73-.394,2.739,2.739,0,0,1-1.765-1.366,6.471,6.471,0,0,1-.527-2.5l-.027-9.366,0-17.926-.012-20.9V22.888a13.734,13.734,0,0,1,.283-4.283l.038-.105A3.412,3.412,0,0,1,97,17.934,4.11,4.11,0,0,1,99.834,16.1Zm5.048,18.135-.011,29.614a12.707,12.707,0,0,1,2.291.15L107.12,42l0-5.185a12.146,12.146,0,0,0-.059-2.532Z" transform="translate(-80.445 -3.723)" fill="currentColor"/><path d="M137.456,3.859c2.254-.222,4.638-.1,6.9-.1,1.988,0,4.475-.223,6.391.368a3.724,3.724,0,0,1,2.126,1.8,8.755,8.755,0,0,1,.528,3.387l.006,9.631L153.4,37.987l.016,17.322-.081,10.353a5.4,5.4,0,0,1-.316,1.6,4.436,4.436,0,0,1-2.641,2.377,38.434,38.434,0,0,1-6.592.2c-2.307,0-6.117.511-8.091-.676a2.855,2.855,0,0,1-1.545-1.986c-.525-2.458-.222-5.452-.212-7.98l.006-11.837-.021-25.324.106-14.632a4.074,4.074,0,0,1,.492-2.044A4.282,4.282,0,0,1,137.456,3.859Zm4.706,18.247.095,29.65a15.889,15.889,0,0,1,2.572.007l-.012-29.574Z" transform="translate(-80.445 -3.723)" fill="currentColor"/></g></svg>
